build/img/about_methods/vectors/middle/bpuddle.svg

<svg width="197" height="630" viewBox="0 0 197 630" fill="none" xmlns="http://www.w3.org/2000/svg">
<path opacity="0.8" fill-rule="evenodd" clip-rule="evenodd" d="M495.071 279.727C503.754 343.504 491.745 400.175 474.8 457.397C455.604 522.222 447.747 607.039 392.472 626.196C336.924 645.447 282.757 572.676 224.626 544.099C148.623 506.736 33.7677 528.272 5.38629 435.905C-23.0865 343.239 88.2555 300.721 126.251 223.937C157.168 161.458 150.432 69.192 203.86 34.816C265.773 -5.01894 352.695 -17.9552 417.498 36.5457C480.205 89.2829 483.239 192.833 495.071 279.727Z" fill="#F3F1DF"/>
</svg>

<svg width="197" height="630" fill="none" xmlns="http://www.w3.org/2000/svg"><path opacity=".8" fill-rule="evenodd" clip-rule="evenodd" d="M495.071 279.727c8.683 63.777-3.326 120.448-20.271 177.67-19.196 64.825-27.053 149.642-82.328 168.799-55.548 19.251-109.715-53.52-167.846-82.097-76.003-37.363-190.858-15.827-219.24-108.194-28.473-92.666 82.87-135.184 120.865-211.968 30.917-62.479 24.181-154.745 77.609-189.121 61.913-39.835 148.835-52.771 213.638 1.73 62.707 52.737 65.741 156.287 77.573 243.181Z" fill="#F3F1DF"/></svg>
